app/assets/images/heroicons/micro/wrench.svg

<svg width="16" height="16" viewBox="0 0 16 16" fill="none" xmlns="http://www.w3.org/2000/svg">
<path fill-rule="evenodd" clip-rule="evenodd" d="M11.5 8C13.433 8 15 6.433 15 4.5C15 4.16126 14.9519 3.83377 14.8621 3.52398C14.768 3.19913 14.365 3.13464 14.126 3.37385L12.0993 5.40148C11.921 5.57986 11.6367 5.59872 11.4459 5.43382C11.1321 5.16268 10.8384 4.86896 10.5672 4.55521C10.4024 4.36442 10.4212 4.08015 10.5995 3.90184L12.6271 1.87425C12.8662 1.63516 12.8017 1.23238 12.477 1.13817C12.1669 1.04822 11.8391 1 11.5 1C9.567 1 8 2.567 8 4.5C8 4.52183 8.0002 4.54361 8.0006 4.56535C8.01871 5.55435 7.86784 6.65835 7.08704 7.26564L1.77778 11.3951C1.28703 11.7768 1 12.3636 1 12.9853C1 14.098 1.90199 15 3.01466 15C3.63637 15 4.22325 14.713 4.60494 14.2222L8.73436 8.91296C9.34165 8.13216 10.4457 7.98129 11.4347 7.9994C11.4564 7.9998 11.4782 8 11.5 8ZM3 13.75C3.41421 13.75 3.75 13.4142 3.75 13C3.75 12.5858 3.41421 12.25 3 12.25C2.58579 12.25 2.25 12.5858 2.25 13C2.25 13.4142 2.58579 13.75 3 13.75Z" fill="black"/>
</svg>

<svg xmlns="http://www.w3.org/2000/svg" viewBox="0 0 16 16" fill="currentColor" aria-hidden="true" data-slot="icon">
  <path fill-rule="evenodd" d="M11.5 8a3.5 3.5 0 0 0 3.362-4.476c-.094-.325-.497-.39-.736-.15L12.099 5.4a.48.48 0 0 1-.653.033 8.554 8.554 0 0 1-.879-.879.48.48 0 0 1 .033-.653l2.027-2.028c.24-.239.175-.642-.15-.736a3.502 3.502 0 0 0-4.476 3.427c.018.99-.133 2.093-.914 2.7l-5.31 4.13a2.015 2.015 0 1 0 2.828 2.827l4.13-5.309c.607-.78 1.71-.932 2.7-.914L11.5 8ZM3 13.75a.75.75 0 1 0 0-1.5.75.75 0 0 0 0 1.5Z" clip-rule="evenodd"/>
</svg>
